elusive/mic.svg

<?xml version="1.0" encoding="UTF-8" standalone="no"?>
<!-- Generator: IcoMoon.io -->

<svg
   xmlns:dc="http://purl.org/dc/elements/1.1/"
   xmlns:cc="http://creativecommons.org/ns#"
   xmlns:rdf="http://www.w3.org/1999/02/22-rdf-syntax-ns#"
   xmlns:svg="http://www.w3.org/2000/svg"
   xmlns="http://www.w3.org/2000/svg"
   xmlns:sodipodi="http://sodipodi.sourceforge.net/DTD/sodipodi-0.dtd"
   xmlns:inkscape="http://www.inkscape.org/namespaces/inkscape"
   id="svg2"
   version="1.1"
   data-tags="remove-circle, cancel, close, remove, delete"
   height="1200"
   width="1200"
   data-du=""
   viewBox="0 0 1200 1200"
   inkscape:version="0.48.4 r9939"
   sodipodi:docname="mic.svg">
  <defs
     id="defs32">
    <pattern
       id="pattern13199"
       width="811.3138"
       patternUnits="userSpaceOnUse"
       patternTransform="translate(-1692.9959,113.8855)"
       height="483.7205">
      <path
         id="path13201"
         filter="url(#filter3767)"
         d="M241.8603,83.1823H569.4535A158.678,158.678 0 0 1 728.1315,241.8603V241.8603A158.678,158.678 0 0 1 569.4535,400.5382H241.8603A158.678,158.678 0 0 1 83.1823,241.8603V241.8603A158.678,158.678 0 0 1 241.8603,83.1823" />
    </pattern>
    <mask
       id="mask13195"
       maskUnits="userSpaceOnUse">
      <path
         id="path13197"
         d="m -957.1864,582.2458 40.9492,-299.4407 -144.6017,-8.9576 -10.2373,67.822 -12.7966,11.5169 -8.9576,216.2627 -65.2627,-21.7542 14.0763,-270.0085 -74.2204,-6.3983 -11.5169,28.1525 -14.0763,225.2203 -42.2288,-8.9576 2.5593,-250.8136 -6.3983,0 -7.678,-70.3814 -33.2712,1.2797 -1.2796,29.4322 -7.678,17.9153 -2.5593,189.3898 -26.8729,33.2712 2.5593,88.2966 40.9492,19.1949 34.5508,-46.0678 284.0848,76.7797 49.9068,-21.7542"
         inkscape:connector-curvature="0"
         style="fill:#ffffff;stroke:#000000" />
    </mask>
    <filter
       id="filter13191"
       y="-0.26210001"
       x="-0.12899999"
       width="1.2579"
       height="1.5242"
       color-interpolation-filters="sRGB">
      <feGaussianBlur
         id="feGaussianBlur13193"
         stdDeviation="34.659" />
    </filter>
    <inkscape:path-effect
       id="path-effect13189" />
  </defs>
  <sodipodi:namedview
     pagecolor="#ffffff"
     bordercolor="#666666"
     borderopacity="1"
     objecttolerance="10"
     gridtolerance="10"
     guidetolerance="10"
     inkscape:pageopacity="0"
     inkscape:pageshadow="2"
     inkscape:window-width="1535"
     inkscape:window-height="876"
     id="namedview30"
     showgrid="false"
     inkscape:zoom="0.52678571"
     inkscape:cx="585.7913"
     inkscape:cy="636.84202"
     inkscape:window-x="65"
     inkscape:window-y="24"
     inkscape:window-maximized="1"
     inkscape:current-layer="svg2" />
  <metadata
     id="metadata62">
    <rdf:RDF>
      <cc:Work
         rdf:about="">
        <dc:format>image/svg+xml</dc:format>
        <dc:type
           rdf:resource="http://purl.org/dc/dcmitype/StillImage" />
        <dc:title />
      </cc:Work>
    </rdf:RDF>
  </metadata>
  <path
     id="path14293"
     d="m 567.62696,0 c -30.62601,2.388749 -60.65273,8.270388 -89.72181,17.065311 l 0,160.913199 -65.91797,0 0,-134.838978 c -29.28211,14.495157 -57.04828,32.006715 -82.25085,52.80774 -0.13296,0.110169 -0.23345,0.255932 -0.36634,0.36632 l 0,657.275158 c 0.13311,0.11064 0.23345,0.25617 0.36634,0.36633 76.47164,63.34476 173.18086,97.22485 270.26368,97.4121 99.3328,-0.0365 195.30422,-35.54437 270.26368,-97.4121 0.13357,-0.11016 0.23437,-0.25594 0.36632,-0.36633 l 0,-657.275158 c -0.13389,-0.110638 -0.23414,-0.256167 -0.36632,-0.36632 C 845.23126,75.21188 817.85743,57.9982 789.1847,43.725472 l 0,134.253038 -65.91796,0 0,-160.473506 C 694.01368,8.593826 663.94056,2.485077 633.54493,0 l 0,177.97851 -65.91796,0 0,-177.97851 z m -367.6758,525.21984 0,336.54774 c 24.11696,22.25672 50.0822,42.46992 77.63673,60.49804 63.48233,41.53431 135.35344,71.23482 212.54884,85.83988 l 0,-38.81839 219.72656,0 0,38.81839 c 77.19539,-14.60506 149.06649,-44.30557 212.54882,-85.83988 27.55479,-18.02812 53.52,-38.24132 77.63669,-60.49804 l 0,-336.54774 -77.63669,0 0,297.87586 c -87.98038,71.84743 -200.15085,114.99024 -322.4121,114.99024 -122.26151,0 -234.4315,-43.14281 -322.41213,-114.99024 l 0,-297.87586 -77.63672,0 z m 509.91213,482.88566 c -35.58844,6.7331 -72.32344,10.2538 -109.86328,10.2538 -37.54009,0 -74.27485,-3.5207 -109.86329,-10.2538 l 0,109.4971 -130.005,0 0,82.3974 130.005,0 219.72657,0 130.005,0 0,-82.3974 -130.005,0 0,-109.4971 z"
     inkscape:connector-curvature="0" />
</svg>

<?xml version="1.0" encoding="utf-8"?>
<!-- Generator: Adobe Illustrator 13.0.0, SVG Export Plug-In . SVG Version: 6.00 Build 14948)  -->
<!DOCTYPE svg PUBLIC "-//W3C//DTD SVG 1.1//EN" "http://www.w3.org/Graphics/SVG/1.1/DTD/svg11.dtd">
<svg version="1.1"
	 id="svg2" inkscape:version="0.48.4 r9939" sodipodi:docname="mic.svg" xmlns:dc="http://purl.org/dc/elements/1.1/" xmlns:cc="http://creativecommons.org/ns#" xmlns:rdf="http://www.w3.org/1999/02/22-rdf-syntax-ns#" xmlns:svg="http://www.w3.org/2000/svg" xmlns:sodipodi="http://sodipodi.sourceforge.net/DTD/sodipodi-0.dtd" xmlns:inkscape="http://www.inkscape.org/namespaces/inkscape"
	 xmlns="http://www.w3.org/2000/svg" xmlns:xlink="http://www.w3.org/1999/xlink" x="0px" y="0px" width="1200px" height="1200px"
	 viewBox="0 0 1200 1200" enable-background="new 0 0 1200 1200" xml:space="preserve">
<path id="path14293" inkscape:connector-curvature="0" d="M567.627,0c-30.626,2.389-60.652,8.271-89.722,17.065v160.913h-65.918
	V43.14c-29.282,14.495-57.049,32.007-82.251,52.808c-0.133,0.11-0.233,0.256-0.366,0.366v657.275
	c0.133,0.11,0.233,0.256,0.366,0.366C406.208,817.3,502.917,851.18,600,851.367c99.333-0.036,195.305-35.544,270.264-97.412
	c0.134-0.11,0.234-0.256,0.366-0.366V96.313c-0.134-0.11-0.234-0.256-0.366-0.366c-25.032-20.735-52.406-37.949-81.079-52.222
	v134.253h-65.918V17.505C694.014,8.594,663.94,2.485,633.545,0v177.979h-65.918V0z M199.951,525.22v336.548
	c24.117,22.257,50.082,42.47,77.637,60.498c63.482,41.534,135.354,71.234,212.549,85.84v-38.818h219.727v38.818
	c77.195-14.605,149.066-44.306,212.549-85.84c27.555-18.028,53.52-38.241,77.637-60.498V525.22h-77.637v297.876
	c-87.98,71.848-200.15,114.99-322.412,114.99s-234.432-43.143-322.412-114.99V525.22H199.951L199.951,525.22z M709.863,1008.105
	c-35.589,6.733-72.323,10.254-109.863,10.254s-74.274-3.521-109.863-10.254v109.497H360.132V1200h130.005h219.727h130.005v-82.397
	H709.863V1008.105z"/>
</svg>
